RestoDelMundo/Varios/Federaciones/Ts Polonia.svg

<svg xmlns="http://www.w3.org/2000/svg" viewBox="0 0 612 792"><path fill="#fcaf17" d="M306.576 681.712C209.52 624.616 138.6 546.928 96.48 442.096c-41.688-103.68-49.752-216.72-47.304-327.24h514.8c2.448 110.52-5.616 223.56-47.304 327.24-42.12 104.832-113.04 182.52-210.096 239.616"/><path fill="#ed1c24" d="M188.064 244.312H138.6V496.6c14.04 24.624 30.456 48.024 49.464 70.056z"/><path fill="#fff" d="M547.488 229.912c2.304-32.76 3.024-66.384 2.448-100.728H63.216c-.576 34.344.144 67.968 2.448 100.728z"/><g fill="#fcaf17"><path d="M109.944 212.632v-66.168h20.376c7.704 0 12.744.288 15.12 1.008 3.6.936 6.624 3.096 9 6.408 2.448 3.384 3.672 7.632 3.672 12.888 0 4.104-.72 7.488-2.088 10.296-1.44 2.736-3.168 4.896-5.328 6.48s-4.392 2.664-6.624 3.168c-3.024.648-7.416.936-13.176.936h-8.208v24.984zm12.744-55.008v18.792h6.912c4.968 0 8.352-.36 10.008-1.008 1.728-.72 3.024-1.8 3.96-3.312 1.008-1.44 1.44-3.168 1.44-5.112 0-2.376-.648-4.392-2.016-5.976-1.296-1.512-3.024-2.52-5.04-2.952-1.584-.288-4.608-.432-9.144-.432zM165.96 179.944c0-6.768.936-12.384 2.88-16.992a31.6 31.6 0 0 1 5.832-9.072c2.448-2.664 5.184-4.68 8.136-5.976 3.888-1.728 8.424-2.592 13.536-2.592q13.932 0 22.248 9.072c5.544 6.048 8.352 14.472 8.352 25.2s-2.808 19.08-8.28 25.128c-5.544 5.976-12.888 9-22.104 9-9.36 0-16.848-3.024-22.32-9-5.544-5.976-8.28-14.256-8.28-24.768m13.104-.432c0 7.488 1.584 13.176 4.896 16.992q4.968 5.832 12.528 5.832c5.04 0 9.216-1.944 12.456-5.76 3.24-3.888 4.824-9.576 4.824-17.28 0-7.56-1.584-13.248-4.68-16.992-3.168-3.672-7.344-5.544-12.6-5.544s-9.432 1.872-12.672 5.616c-3.168 3.816-4.752 9.504-4.752 17.136M237.168 212.632v-65.664h12.672v54.504h31.608v11.16ZM287.928 179.944c0-6.768.936-12.384 2.808-16.992 1.44-3.384 3.384-6.408 5.904-9.072 2.448-2.664 5.184-4.68 8.064-5.976 3.888-1.728 8.424-2.592 13.536-2.592 9.216 0 16.632 3.024 22.176 9.072 5.616 6.048 8.352 14.472 8.352 25.2s-2.736 19.08-8.28 25.128c-5.472 5.976-12.888 9-22.104 9-9.36 0-16.704-3.024-22.248-9-5.472-5.976-8.208-14.256-8.208-24.768m13.032-.432c0 7.488 1.656 13.176 4.968 16.992 3.168 3.888 7.344 5.832 12.456 5.832 5.04 0 9.144-1.944 12.456-5.76 3.168-3.888 4.824-9.576 4.824-17.28 0-7.56-1.584-13.248-4.752-16.992-3.168-3.672-7.344-5.544-12.528-5.544-5.256 0-9.504 1.872-12.6 5.616-3.24 3.816-4.824 9.504-4.824 17.136M358.848 212.632v-66.168h12.312l25.704 44.136v-44.136h11.808v66.168h-12.744l-25.344-43.2v43.2ZM421.704 146.464h12.672v66.168h-12.672ZM503.208 212.632h-13.824l-5.472-15.048h-25.128l-5.184 15.048h-13.464l24.48-66.168h13.392zm-23.4-26.208-8.64-24.552-8.496 24.552z"/></g><path fill="#ed1c24" d="M425.088 566.656c19.008-22.032 35.424-45.432 49.464-70.056V244.312h-49.464zM306.576 665.152c14.184-8.496 27.576-17.352 40.32-26.64v-394.2h-80.64v394.2c12.744 9.288 26.136 18.144 40.32 26.64"/><g fill="#fcaf17"><path d="M283.752 271.96h21.816c4.248 0 7.488.144 9.576.504 2.16.432 4.032 1.152 5.76 2.376 1.656 1.152 3.024 2.736 4.176 4.68 1.08 1.944 1.656 4.104 1.656 6.552 0 2.592-.72 5.039-2.088 7.2q-2.052 3.348-5.616 4.968c3.384 1.008 5.904 2.664 7.704 5.112 1.8 2.376 2.664 5.184 2.664 8.424 0 2.592-.576 5.04-1.728 7.488-1.152 2.376-2.736 4.32-4.752 5.76-1.944 1.44-4.392 2.304-7.344 2.664-1.872.216-6.264.36-13.248.36h-18.576zm11.016 9.288v13.032h7.2c4.32 0 6.912-.072 7.992-.216 1.872-.216 3.312-.864 4.392-2.016 1.08-1.08 1.656-2.592 1.656-4.392 0-1.728-.432-3.168-1.368-4.248s-2.376-1.728-4.176-1.944c-1.08-.144-4.176-.216-9.36-.216zm0 22.32v15.048h10.224c3.888 0 6.408-.144 7.488-.36 1.656-.288 2.952-1.08 3.96-2.232 1.08-1.152 1.584-2.808 1.584-4.752 0-1.728-.432-3.096-1.224-4.32-.792-1.152-1.944-2.016-3.384-2.52-1.512-.576-4.824-.864-9.72-.864zM301.104 398.968v-23.544l-20.016-32.544h12.888l12.816 22.248 12.6-22.248h12.672l-20.088 32.616v23.472ZM301.104 469.888v-46.584h-16.2V413.8h43.344v9.504h-16.2v46.584ZM280.152 513.16c0-5.76.792-10.512 2.448-14.4 1.296-2.88 2.952-5.472 5.112-7.704 2.16-2.304 4.464-3.96 7.056-5.04 3.384-1.512 7.344-2.232 11.736-2.232 7.992 0 14.472 2.592 19.296 7.704s7.2 12.24 7.2 21.384c0 9.072-2.376 16.128-7.2 21.312-4.752 5.04-11.16 7.632-19.152 7.632-8.064 0-14.544-2.52-19.368-7.632-4.752-5.112-7.128-12.096-7.128-21.024m11.304-.36c0 6.336 1.44 11.16 4.32 14.4q4.32 4.968 10.8 4.968c4.392 0 7.992-1.656 10.8-4.896 2.808-3.312 4.248-8.136 4.248-14.688 0-6.408-1.368-11.232-4.104-14.4s-6.408-4.752-10.944-4.752c-4.464 0-8.136 1.656-10.944 4.824-2.736 3.24-4.176 8.064-4.176 14.544M280.224 611.8v-56.088h16.488l9.864 38.304 9.792-38.304h16.56V611.8h-10.224v-44.136L311.832 611.8H301.32l-10.872-44.136V611.8Z"/></g><path fill="#0061af" d="M124.2 244.312H66.744C72.72 313 85.968 377.728 109.728 436.768c4.464 11.016 9.216 21.888 14.472 32.544zM251.856 244.312h-49.392v338.256c14.976 15.84 31.392 30.816 49.392 45zM488.952 469.384c5.256-10.728 10.008-21.6 14.472-32.616 23.76-59.04 37.08-123.768 42.984-192.456h-57.456zM361.296 627.568c18-14.184 34.416-29.16 49.392-45V244.312h-49.392z"/></svg>

<svg enable-background="new 0 0 612 792" viewBox="0 0 612 792" xmlns="http://www.w3.org/2000/svg"><path d="M 306.576 681.712 C 209.52 624.616 138.6 546.928 96.48 442.096 c -41.688 -103.68 -49.752 -216.72 -47.304 -327.24 h 514.8 c 2.448 110.52 -5.616 223.56 -47.304 327.24 C 474.552 546.928 403.632 624.616 306.576 681.712 z" fill="#fcaf17"/><path d="M 188.064 244.312 H 138.6 V 496.6 c 14.04 24.624 30.456 48.024 49.464 70.056 V 244.312 z" fill="#ed1c24"/><path d="M 547.488 229.912 c 2.304 -32.76 3.024 -66.384 2.448 -100.728 H 63.216 c -.576 34.344 .144 67.968 2.448 100.728 H 547.488 z" fill="#fff"/><g><path d="M 109.944 212.632 v -66.168 h 20.376 c 7.704 0 12.744 .288 15.12 1.008 c 3.6 .936 6.624 3.096 9 6.408 c 2.448 3.384 3.672 7.632 3.672 12.888 c 0 4.104 -.72 7.488 -2.088 10.296 c -1.44 2.736 -3.168 4.896 -5.328 6.48 c -2.16 1.584 -4.392 2.664 -6.624 3.168 c -3.024 .648 -7.416 .936 -13.176 .936 h -8.208 v 24.984 H 109.944 L 109.944 212.632 z M 122.688 157.624 v 18.792 h 6.912 c 4.968 0 8.352 -.36 10.008 -1.008 c 1.728 -.72 3.024 -1.8 3.96 -3.312 c 1.008 -1.44 1.44 -3.168 1.44 -5.112 c 0 -2.376 -.648 -4.392 -2.016 -5.976 c -1.296 -1.512 -3.024 -2.52 -5.04 -2.952 c -1.584 -.288 -4.608 -.432 -9.144 -.432 H 122.688 z" fill="#fcaf17"/><path d="M 165.96 179.944 c 0 -6.768 .936 -12.384 2.88 -16.992 c 1.44 -3.384 3.384 -6.408 5.832 -9.072 c 2.448 -2.664 5.184 -4.68 8.136 -5.976 c 3.888 -1.728 8.424 -2.592 13.536 -2.592 c 9.288 0 16.704 3.024 22.248 9.072 c 5.544 6.048 8.352 14.472 8.352 25.2 s -2.808 19.08 -8.28 25.128 c -5.544 5.976 -12.888 9 -22.104 9 c -9.36 0 -16.848 -3.024 -22.32 -9 C 168.696 198.736 165.96 190.456 165.96 179.944 L 165.96 179.944 z M 179.064 179.512 c 0 7.488 1.584 13.176 4.896 16.992 c 3.312 3.888 7.488 5.832 12.528 5.832 c 5.04 0 9.216 -1.944 12.456 -5.76 c 3.24 -3.888 4.824 -9.576 4.824 -17.28 c 0 -7.56 -1.584 -13.248 -4.68 -16.992 c -3.168 -3.672 -7.344 -5.544 -12.6 -5.544 c -5.256 0 -9.432 1.872 -12.672 5.616 C 180.648 166.192 179.064 171.88 179.064 179.512 z" fill="#fcaf17"/><path d="M 237.168 212.632 L 237.168 146.968 L 249.84 146.968 L 249.84 201.472 L 281.448 201.472 L 281.448 212.632 Z" fill="#fcaf17"/><path d="M 287.928 179.944 c 0 -6.768 .936 -12.384 2.808 -16.992 c 1.44 -3.384 3.384 -6.408 5.904 -9.072 c 2.448 -2.664 5.184 -4.68 8.064 -5.976 c 3.888 -1.728 8.424 -2.592 13.536 -2.592 c 9.216 0 16.632 3.024 22.176 9.072 c 5.616 6.048 8.352 14.472 8.352 25.2 s -2.736 19.08 -8.28 25.128 c -5.472 5.976 -12.888 9 -22.104 9 c -9.36 0 -16.704 -3.024 -22.248 -9 C 290.664 198.736 287.928 190.456 287.928 179.944 L 287.928 179.944 z M 300.96 179.512 c 0 7.488 1.656 13.176 4.968 16.992 c 3.168 3.888 7.344 5.832 12.456 5.832 c 5.04 0 9.144 -1.944 12.456 -5.76 c 3.168 -3.888 4.824 -9.576 4.824 -17.28 c 0 -7.56 -1.584 -13.248 -4.752 -16.992 c -3.168 -3.672 -7.344 -5.544 -12.528 -5.544 c -5.256 0 -9.504 1.872 -12.6 5.616 C 302.544 166.192 300.96 171.88 300.96 179.512 z" fill="#fcaf17"/><path d="M 358.848 212.632 L 358.848 146.464 L 371.16 146.464 L 396.864 190.6 L 396.864 146.464 L 408.672 146.464 L 408.672 212.632 L 395.928 212.632 L 370.584 169.432 L 370.584 212.632 Z" fill="#fcaf17"/><path d="M 421.704 146.464 H 434.376 V 212.632 H 421.704 Z" fill="#fcaf17"/><path d="M 503.208 212.632 h -13.824 l -5.472 -15.048 h -25.128 l -5.184 15.048 h -13.464 l 24.48 -66.168 h 13.392 L 503.208 212.632 L 503.208 212.632 z M 479.808 186.424 l -8.64 -24.552 l -8.496 24.552 H 479.808 z" fill="#fcaf17"/></g><path d="M 425.088 566.656 c 19.008 -22.032 35.424 -45.432 49.464 -70.056 V 244.312 h -49.464 V 566.656 z" fill="#ed1c24"/><path d="M 306.576 665.152 c 14.184 -8.496 27.576 -17.352 40.32 -26.64 v -394.2 h -80.64 v 394.2 C 279 647.8 292.392 656.656 306.576 665.152 z" fill="#ed1c24"/><g><path d="M 283.752 271.96 h 21.816 c 4.248 0 7.488 .144 9.576 .504 c 2.16 .432 4.032 1.152 5.76 2.376 c 1.656 1.152 3.024 2.736 4.176 4.68 c 1.08 1.944 1.656 4.104 1.656 6.552 c 0 2.592 -.72 5.039 -2.088 7.2 c -1.368 2.232 -3.24 3.888 -5.616 4.968 c 3.384 1.008 5.904 2.664 7.704 5.112 c 1.8 2.376 2.664 5.184 2.664 8.424 c 0 2.592 -.576 5.04 -1.728 7.488 c -1.152 2.376 -2.736 4.32 -4.752 5.76 c -1.944 1.44 -4.392 2.304 -7.344 2.664 c -1.872 .216 -6.264 .36 -13.248 .36 h -18.576 V 271.96 L 283.752 271.96 z M 294.768 281.248 v 13.032 h 7.2 c 4.32 0 6.912 -.072 7.992 -.216 c 1.872 -.216 3.312 -.864 4.392 -2.016 c 1.08 -1.08 1.656 -2.592 1.656 -4.392 c 0 -1.728 -.432 -3.168 -1.368 -4.248 c -.936 -1.08 -2.376 -1.728 -4.176 -1.944 c -1.08 -.144 -4.176 -.216 -9.36 -.216 H 294.768 L 294.768 281.248 z M 294.768 303.568 v 15.048 h 10.224 c 3.888 0 6.408 -.144 7.488 -.36 c 1.656 -.288 2.952 -1.08 3.96 -2.232 c 1.08 -1.152 1.584 -2.808 1.584 -4.752 c 0 -1.728 -.432 -3.096 -1.224 -4.32 c -.792 -1.152 -1.944 -2.016 -3.384 -2.52 c -1.512 -.576 -4.824 -.864 -9.72 -.864 H 294.768 z" fill="#fcaf17"/><path d="M 301.104 398.968 L 301.104 375.424 L 281.088 342.88 L 293.976 342.88 L 306.792 365.128 L 319.392 342.88 L 332.064 342.88 L 311.976 375.496 L 311.976 398.968 Z" fill="#fcaf17"/><path d="M 301.104 469.888 L 301.104 423.304 L 284.904 423.304 L 284.904 413.8 L 328.248 413.8 L 328.248 423.304 L 312.048 423.304 L 312.048 469.888 Z" fill="#fcaf17"/><path d="M 280.152 513.16 c 0 -5.76 .792 -10.512 2.448 -14.4 c 1.296 -2.88 2.952 -5.472 5.112 -7.704 c 2.16 -2.304 4.464 -3.96 7.056 -5.04 c 3.384 -1.512 7.344 -2.232 11.736 -2.232 c 7.992 0 14.472 2.592 19.296 7.704 c 4.824 5.112 7.2 12.24 7.2 21.384 c 0 9.072 -2.376 16.128 -7.2 21.312 c -4.752 5.04 -11.16 7.632 -19.152 7.632 c -8.064 0 -14.544 -2.52 -19.368 -7.632 C 282.528 529.072 280.152 522.088 280.152 513.16 L 280.152 513.16 z M 291.456 512.8 c 0 6.336 1.44 11.16 4.32 14.4 c 2.88 3.312 6.48 4.968 10.8 4.968 c 4.392 0 7.992 -1.656 10.8 -4.896 c 2.808 -3.312 4.248 -8.136 4.248 -14.688 c 0 -6.408 -1.368 -11.232 -4.104 -14.4 c -2.736 -3.168 -6.408 -4.752 -10.944 -4.752 c -4.464 0 -8.136 1.656 -10.944 4.824 C 292.896 501.496 291.456 506.32 291.456 512.8 z" fill="#fcaf17"/><path d="M 280.224 611.8 L 280.224 555.712 L 296.712 555.712 L 306.576 594.016 L 316.368 555.712 L 332.928 555.712 L 332.928 611.8 L 322.704 611.8 L 322.704 567.664 L 311.832 611.8 L 301.32 611.8 L 290.448 567.664 L 290.448 611.8 Z" fill="#fcaf17"/></g><path d="M 124.2 244.312 H 66.744 C 72.72 313 85.968 377.728 109.728 436.768 c 4.464 11.016 9.216 21.888 14.472 32.544 V 244.312 z" fill="#0061af"/><path d="M 251.856 244.312 h -49.392 v 338.256 c 14.976 15.84 31.392 30.816 49.392 45 V 244.312 z" fill="#0061af"/><path d="M 488.952 469.384 c 5.256 -10.728 10.008 -21.6 14.472 -32.616 c 23.76 -59.04 37.08 -123.768 42.984 -192.456 h -57.456 V 469.384 z" fill="#0061af"/><path d="M 361.296 627.568 c 18 -14.184 34.416 -29.16 49.392 -45 V 244.312 h -49.392 V 627.568 z" fill="#0061af"/></svg>
